configs/marketplace-logos/NOW_Wallet.svg

<svg xmlns="http://www.w3.org/2000/svg" fill="none" viewBox="0 0 512 512">
  <mask id="NOW_Wallet_svg__b" width="360" height="413" x="77" y="60" maskUnits="userSpaceOnUse" style="mask-type:alpha">
    <path fill="url(#NOW_Wallet_svg__a)" fill-rule="evenodd" d="M181.321 75.328c28.232-7.68 57.896-14.48 75.496-14.48 17.6 0 47.248 6.824 75.456 14.448l.04.008a1619.221 1619.221 0 0 1 74.816 22.56l.024.008a37.759 37.759 0 0 1 17.304 11.864 38.18 38.18 0 0 1 8.384 19.456c15.288 115.328-20.24 200.776-63.384 257.352a303.467 303.467 0 0 1-65.16 63.584 181.25 181.25 0 0 1-26.864 16.024l-.08.04c-7.224 3.392-14.656 6-20.56 6-5.936 0-13.392-2.6-20.64-6.032-7.752-3.656-16.92-9-26.856-16.024l-.048-.032a303.236 303.236 0 0 1-64.864-63.256 8.337 8.337 0 0 1-.4-.6c-43.08-56.568-78.464-141.928-63.2-257.088l.032-.248a37.834 37.834 0 0 1 25.68-31.016m74.816-22.568c-28.752 7.76-57.768 16.968-74.816 22.56l74.816-22.56Z" clip-rule="evenodd"/>
  </mask>
  <g mask="url(#NOW_Wallet_svg__b)">
    <path fill="url(#NOW_Wallet_svg__c)" d="M464.641 0h-416c-26.51 0-48 21.49-48 48v416c0 26.51 21.49 48 48 48h416c26.509 0 48-21.49 48-48V48c0-26.51-21.491-48-48-48Z"/>
    <path fill="#00C26F" d="M150.762 251.68h10.04v-43.552h.168l27.928 43.584h12.768V194.88H191.61v42.192h-.136L164.05 194.88h-13.272v56.8h-.016Zm66.976-16.024a26.999 26.999 0 0 0 15.616 15.376c3.84 1.44 7.912 2.176 12 2.12a33.058 33.058 0 0 0 12.144-2.296 28.534 28.534 0 0 0 9.52-6.144 27.363 27.363 0 0 0 6.24-9.4 31.395 31.395 0 0 0 2.176-12.12 33.12 33.12 0 0 0-2.24-12.376 27.35 27.35 0 0 0-6.24-9.456 26.207 26.207 0 0 0-9.512-5.976 32.832 32.832 0 0 0-12.136-1.952 33.42 33.42 0 0 0-12 2.128 26.668 26.668 0 0 0-9.408 6.056 27.98 27.98 0 0 0-6.24 9.52 32.647 32.647 0 0 0-2.088 12.4 31.79 31.79 0 0 0 2.224 12.12h-.056Zm9.688-20.704a19.84 19.84 0 0 1 3.952-6.456c1.728-1.84 3.784-3.336 6.128-4.328a19.17 19.17 0 0 1 7.968-1.56c2.742-.022 5.46.508 7.992 1.56a18.125 18.125 0 0 1 6.16 4.328 19.66 19.66 0 0 1 3.944 6.456 22.343 22.343 0 0 1 1.36 7.928 24.631 24.631 0 0 1-1.416 8.44c-.88 2.464-2.2 4.728-3.952 6.656a18 18 0 0 1-6.16 4.416 19.317 19.317 0 0 1-7.984 1.616 19.059 19.059 0 0 1-7.936-1.616 18.156 18.156 0 0 1-6.104-4.416 19.645 19.645 0 0 1-3.952-6.656 24.467 24.467 0 0 1-1.384-8.44 21.942 21.942 0 0 1 1.416-7.952l-.032.024Zm72.152 36.728h9.256l13.104-43.264h.168l13.136 43.264h9.568l16.44-56.8h-10.224l-11.064 40.944h-.176l-12.48-40.944h-9.912l-12.704 40.944h-.168l-10.624-40.944h-11.064l16.744 56.8Z"/>
    <path fill="url(#NOW_Wallet_svg__d)" fill-rule="evenodd" d="M257.458 77.16c-15.056 0-42.616 6.12-71.216 13.912h-.016c-28.36 7.656-57.072 16.76-74 22.32a21.542 21.542 0 0 0-14.592 17.704c-14.76 110.88 19.408 192.24 60.376 245.816.16.208.304.424.44.64a286.941 286.941 0 0 0 60.935 59.28c9.28 6.56 17.625 11.392 24.361 14.568l.024.008c6.912 3.28 11.576 4.48 13.656 4.48 2.056 0 6.664-1.2 13.584-4.44a164.942 164.942 0 0 0 24.408-14.56l.008-.008a287.195 287.195 0 0 0 61.632-60.136c40.904-53.592 74.96-134.88 60.224-245.624a21.887 21.887 0 0 0-4.784-11.024 21.441 21.441 0 0 0-9.824-6.736 1604.245 1604.245 0 0 0-74.032-22.32c-28.617-7.736-56.136-13.88-71.184-13.88Zm-75.497-1.832c28.233-7.68 57.897-14.48 75.497-14.48s47.248 6.824 75.456 14.448l.039.008a1620.332 1620.332 0 0 1 74.816 22.56l.025.008a37.756 37.756 0 0 1 17.303 11.864 38.168 38.168 0 0 1 8.384 19.456c15.289 115.328-20.239 200.776-63.383 257.352a303.513 303.513 0 0 1-65.16 63.584 181.267 181.267 0 0 1-26.864 16.024l-.08.04c-7.224 3.392-14.656 6-20.56 6-5.936 0-13.392-2.6-20.64-6.032-7.752-3.656-16.92-9-26.856-16.024l-.048-.032a303.213 303.213 0 0 1-64.864-63.256 8.016 8.016 0 0 1-.4-.6c-43.08-56.568-78.464-141.928-63.2-257.088l.032-.248a37.84 37.84 0 0 1 25.68-31.016m74.816-22.568c-28.752 7.76-57.768 16.968-74.816 22.56l74.816-22.56Z" clip-rule="evenodd"/>
    <path fill="#fff" d="m161.449 285.776 7.04 24.288h.144l8.16-24.288h4.424l8.16 24.288h.136l7.04-24.288h5.096l-9.648 29.904h-4.8l-8.072-24.544h-.136l-8.072 24.544h-4.832l-9.64-29.904h5Zm69.272 14.248c-1.096 0-2.464.056-4.128.2a21.8 21.8 0 0 0-4.688.752c-1.488.4-2.744 1.016-3.84 1.856a4.236 4.236 0 0 0-1.568 3.504c0 .984.2 1.824.576 2.56a6.104 6.104 0 0 0 1.68 1.728c.71.44 1.485.764 2.296.96.856.16 1.744.248 2.6.248 1.576 0 2.92-.248 4.032-.752a8.488 8.488 0 0 0 2.92-2.048 8.221 8.221 0 0 0 1.688-3.064c.4-1.2.576-2.432.576-3.76v-2.16h-2.152l.008-.024Zm2.224-3.448v-.784c0-5.16-2.6-7.744-7.808-7.744-3.576 0-6.664 1.184-9.328 3.504l-2.6-3c2.856-2.88 7.152-4.344 12.904-4.344 1.488 0 2.88.224 4.232.64 1.4.424 2.576 1.096 3.576 2 1 .84 1.8 1.928 2.4 3.248.6 1.32.92 2.888.92 4.72v13.344c0 1.152.024 2.36.136 3.648.144 1.232.264 2.272.4 3.056h-4.168a26.257 26.257 0 0 1-.32-2.352c-.024-.848-.056-1.688-.056-2.504h-.144a11.76 11.76 0 0 1-4.488 4.352 13.963 13.963 0 0 1-6.264 1.288c-1.352 0-2.64-.2-3.92-.56a10.47 10.47 0 0 1-3.408-1.6 9.546 9.546 0 0 1-2.344-2.744 8.217 8.217 0 0 1-.856-3.84c0-2.448.624-4.32 1.888-5.696 1.312-1.408 2.912-2.448 4.8-3.12 1.952-.672 4.008-1.088 6.184-1.28 2.2-.176 4.232-.256 6.064-.256l2.2.024Zm25.696 19.104h-4.32v-48.304h4.32v48.304Zm21.856 0h-4.32v-48.304h4.32v48.304Zm40.272-18.04c0-2.856-.864-5.16-2.6-6.896-1.752-1.8-4.184-2.696-7.304-2.696a9.994 9.994 0 0 0-4.032.84 11.221 11.221 0 0 0-3.456 2.104 11.596 11.596 0 0 0-2.344 3.064 7.876 7.876 0 0 0-.864 3.584h20.6Zm-20.712 3.48a13.354 13.354 0 0 0 1.12 4.24 11.23 11.23 0 0 0 2.4 3.44c1 .928 2.144 1.688 3.456 2.248 1.32.56 2.72.84 4.24.84 2.32 0 4.264-.504 5.92-1.512 1.68-1.064 2.976-2.272 3.84-3.648l3.312 2.696a16.147 16.147 0 0 1-6.064 4.848 16.882 16.882 0 0 1-7.04 1.464c-2.256 0-4.376-.4-6.32-1.152a15.037 15.037 0 0 1-4.952-3.336 15.667 15.667 0 0 1-3.32-4.992 16.559 16.559 0 0 1-1.168-6.256c0-2.272.4-4.352 1.168-6.256a14.696 14.696 0 0 1 8.152-8.24c1.864-.824 3.896-1.216 6.072-1.216 2.32 0 4.376.4 6.176 1.208 1.832.816 3.344 1.912 4.552 3.256 1.256 1.312 2.2 2.888 2.856 4.712.656 1.792.976 3.704.976 5.752v1.904h-25.376Zm55.184-12.288h-8.784v17.648c0 1.088.112 2.016.344 2.744.232.672.512 1.2.912 1.6.4.392.864.672 1.376.84a7.69 7.69 0 0 0 1.832.2 9.56 9.56 0 0 0 4.432-1.152l.2 3.904a13.99 13.99 0 0 1-8.408.784 6.476 6.476 0 0 1-2.4-1.208 6.627 6.627 0 0 1-1.84-2.44 9.365 9.365 0 0 1-.712-4.016v-18.848h-6.432v-3.84h6.432v-8.44h4.296v8.44h8.776l-.024 3.784Z"/>
  </g>
  <defs>
    <linearGradient id="NOW_Wallet_svg__a" x1="256.801" x2="256.801" y1="58.76" y2="474.24" gradientUnits="userSpaceOnUse">
      <stop stop-color="#FB9600"/>
      <stop offset=".25" stop-color="#00C26F"/>
      <stop offset=".505" stop-color="#6696D6"/>
      <stop offset=".776" stop-color="#F28984"/>
      <stop offset="1" stop-color="#5FCEF0"/>
    </linearGradient>
    <linearGradient id="NOW_Wallet_svg__c" x1="256.641" x2="256.641" y1="0" y2="512" gradientUnits="userSpaceOnUse">
      <stop stop-color="#393A50"/>
      <stop offset="1" stop-color="#171826"/>
    </linearGradient>
    <linearGradient id="NOW_Wallet_svg__d" x1="257.442" x2="257.442" y1="58.76" y2="474.24" gradientUnits="userSpaceOnUse">
      <stop stop-color="#FB9600"/>
      <stop offset=".25" stop-color="#00C26F"/>
      <stop offset=".505" stop-color="#6696D6"/>
      <stop offset=".776" stop-color="#F28984"/>
      <stop offset="1" stop-color="#5FCEF0"/>
    </linearGradient>
  </defs>
</svg>

<svg width="512" height="512" viewBox="0 0 512 512" fill="none" xmlns="http://www.w3.org/2000/svg">
<mask id="mask0_1847_2148" style="mask-type:alpha" maskUnits="userSpaceOnUse" x="77" y="60" width="360" height="413">
<path fill-rule="evenodd" clip-rule="evenodd" d="M181.321 75.328C209.553 67.648 239.217 60.848 256.817 60.848C274.417 60.848 304.065 67.672 332.273 75.296L332.313 75.304C357.43 82.2212 382.376 89.7434 407.129 97.864L407.153 97.872C413.926 100.113 419.926 104.226 424.457 109.736C429.031 115.301 431.938 122.046 432.841 129.192C448.129 244.52 412.601 329.968 369.457 386.544C351.058 410.895 329.091 432.33 304.297 450.128C295.821 456.233 286.833 461.595 277.433 466.152L277.353 466.192C270.129 469.584 262.697 472.192 256.793 472.192C250.857 472.192 243.401 469.592 236.153 466.16C228.401 462.504 219.233 457.16 209.297 450.136L209.249 450.104C184.582 432.386 162.717 411.063 144.385 386.848C144.243 386.654 144.11 386.454 143.985 386.248C100.905 329.68 65.5212 244.32 80.7852 129.16L80.8172 128.912C81.7442 121.849 84.6461 115.191 89.189 109.705C93.7319 104.218 99.7313 100.125 106.497 97.896M181.313 75.328C152.561 83.088 123.545 92.296 106.497 97.888L181.313 75.328Z" fill="url(#paint0_linear_1847_2148)"/>
</mask>
<g mask="url(#mask0_1847_2148)">
<path d="M464.641 0H48.6406C22.131 0 0.640625 21.4903 0.640625 48V464C0.640625 490.51 22.131 512 48.6406 512H464.641C491.15 512 512.641 490.51 512.641 464V48C512.641 21.4903 491.15 0 464.641 0Z" fill="url(#paint1_linear_1847_2148)"/>
<path d="M150.762 251.68H160.802V208.128H160.97L188.898 251.712H201.666V194.88H191.61V237.072H191.474L164.05 194.88H150.778V251.68H150.762ZM217.738 235.656C219.121 239.168 221.226 242.351 223.916 245C226.606 247.648 229.821 249.703 233.354 251.032C237.194 252.472 241.266 253.208 245.354 253.152C249.51 253.157 253.63 252.378 257.498 250.856C261.05 249.465 264.287 247.376 267.018 244.712C269.728 242.046 271.854 238.845 273.258 235.312C274.778 231.464 275.514 227.328 275.434 223.192C275.485 218.962 274.724 214.76 273.194 210.816C271.797 207.263 269.671 204.042 266.954 201.36C264.253 198.704 261.007 196.665 257.442 195.384C253.556 193.975 249.438 193.313 245.306 193.432C241.209 193.4 237.142 194.121 233.306 195.56C229.77 196.888 226.586 198.952 223.898 201.616C221.186 204.336 219.066 207.56 217.658 211.136C216.165 215.095 215.456 219.306 215.57 223.536C215.514 227.682 216.269 231.8 217.794 235.656H217.738ZM227.426 214.952C228.33 212.552 229.658 210.368 231.378 208.496C233.106 206.656 235.162 205.16 237.506 204.168C240.018 203.088 242.73 202.552 245.474 202.608C248.216 202.586 250.934 203.116 253.466 204.168C255.786 205.16 257.898 206.632 259.626 208.496C261.338 210.368 262.698 212.576 263.57 214.952C264.506 217.504 264.954 220.168 264.93 222.88C264.954 225.754 264.475 228.611 263.514 231.32C262.634 233.784 261.314 236.048 259.562 237.976C257.845 239.869 255.745 241.374 253.402 242.392C250.886 243.492 248.164 244.043 245.418 244.008C242.687 244.044 239.981 243.493 237.482 242.392C235.161 241.363 233.082 239.859 231.378 237.976C229.632 236.041 228.289 233.779 227.426 231.32C226.473 228.61 226.004 225.753 226.042 222.88C226.018 220.16 226.498 217.472 227.458 214.928L227.426 214.952ZM299.578 251.68H308.834L321.938 208.416H322.106L335.242 251.68H344.81L361.25 194.88H351.026L339.962 235.824H339.786L327.306 194.88H317.394L304.69 235.824H304.522L293.898 194.88H282.834L299.578 251.68Z" fill="#00C26F"/>
<path fill-rule="evenodd" clip-rule="evenodd" d="M257.458 77.1597C242.402 77.1597 214.842 83.28 186.242 91.072H186.226C157.866 98.7277 129.154 107.832 112.226 113.392C108.373 114.669 104.959 117.008 102.377 120.14C99.7957 123.272 98.1509 127.07 97.6338 131.096C82.8735 241.976 117.042 323.336 158.01 376.912C158.17 377.12 158.314 377.336 158.45 377.552C175.706 400.228 196.242 420.207 219.385 436.832C228.665 443.392 237.01 448.224 243.746 451.4L243.77 451.408C250.682 454.688 255.346 455.888 257.426 455.888C259.482 455.888 264.09 454.688 271.01 451.448C279.549 447.306 287.716 442.435 295.418 436.888L295.426 436.88C318.875 420.046 339.653 399.773 357.058 376.744C397.962 323.152 432.018 241.864 417.282 131.12C416.747 127.071 415.09 123.252 412.498 120.096C409.925 116.968 406.519 114.632 402.674 113.36C378.179 105.326 353.495 97.8842 328.642 91.04C300.025 83.3037 272.506 77.1597 257.458 77.1597ZM181.961 75.328C210.194 67.648 239.858 60.848 257.458 60.848C275.058 60.848 304.706 67.6717 332.914 75.296L332.953 75.3037C358.07 82.2215 383.016 89.7434 407.769 97.8637L407.794 97.872C414.567 100.113 420.566 104.226 425.097 109.736C429.672 115.301 432.578 122.045 433.481 129.192C448.77 244.52 413.242 329.968 370.098 386.544C351.698 410.895 329.731 432.33 304.938 450.128C296.461 456.234 287.473 461.595 278.074 466.152L277.994 466.192C270.77 469.584 263.338 472.192 257.434 472.192C251.498 472.192 244.042 469.592 236.794 466.16C229.042 462.504 219.874 457.16 209.938 450.136L209.89 450.104C185.222 432.386 163.357 411.062 145.026 386.848C144.884 386.654 144.75 386.454 144.626 386.248C101.546 329.68 66.1618 244.32 81.4258 129.16L81.4578 128.912C82.3845 121.849 85.2869 115.191 89.8297 109.704C94.3724 104.218 100.372 100.125 107.138 97.8957M181.954 75.328C153.202 83.088 124.186 92.2957 107.138 97.888L181.954 75.328Z" fill="url(#paint2_linear_1847_2148)"/>
<path d="M161.449 285.776L168.489 310.064H168.633L176.793 285.776H181.217L189.377 310.064H189.513L196.553 285.776H201.649L192.001 315.68H187.201L179.129 291.136H178.993L170.921 315.68H166.089L156.449 285.776H161.449ZM230.721 300.024C229.625 300.024 228.257 300.08 226.593 300.224C224.993 300.304 223.417 300.56 221.905 300.976C220.417 301.376 219.161 301.992 218.065 302.832C217.546 303.251 217.134 303.787 216.861 304.396C216.589 305.005 216.464 305.67 216.497 306.336C216.497 307.32 216.697 308.16 217.073 308.896C217.513 309.578 218.084 310.166 218.753 310.624C219.463 311.064 220.238 311.388 221.049 311.584C221.905 311.744 222.793 311.832 223.649 311.832C225.225 311.832 226.569 311.584 227.681 311.08C228.857 310.576 229.825 309.872 230.601 309.032C231.377 308.136 231.945 307.12 232.289 305.968C232.689 304.768 232.865 303.536 232.865 302.208V300.048H230.713L230.721 300.024ZM232.945 296.576V295.792C232.945 290.632 230.345 288.048 225.137 288.048C221.561 288.048 218.473 289.232 215.809 291.552L213.209 288.552C216.065 285.672 220.361 284.208 226.113 284.208C227.601 284.208 228.993 284.432 230.345 284.848C231.745 285.272 232.921 285.944 233.921 286.848C234.921 287.688 235.721 288.776 236.321 290.096C236.921 291.416 237.241 292.984 237.241 294.816V308.16C237.241 309.312 237.265 310.52 237.377 311.808C237.521 313.04 237.641 314.08 237.777 314.864H233.609C233.467 314.085 233.36 313.3 233.289 312.512C233.265 311.664 233.233 310.824 233.233 310.008H233.089C232.013 311.837 230.462 313.341 228.601 314.36C226.641 315.268 224.497 315.709 222.337 315.648C220.985 315.648 219.697 315.448 218.417 315.088C217.194 314.765 216.039 314.223 215.009 313.488C214.06 312.731 213.265 311.799 212.665 310.744C212.073 309.552 211.779 308.234 211.809 306.904C211.809 304.456 212.433 302.584 213.697 301.208C215.009 299.8 216.609 298.76 218.497 298.088C220.449 297.416 222.505 297 224.681 296.808C226.881 296.632 228.913 296.552 230.745 296.552L232.945 296.576ZM258.641 315.68H254.321V267.376H258.641V315.68ZM280.497 315.68H276.177V267.376H280.497V315.68ZM320.769 297.64C320.769 294.784 319.905 292.48 318.169 290.744C316.417 288.944 313.985 288.048 310.865 288.048C309.478 288.045 308.104 288.331 306.833 288.888C305.521 289.4 304.377 290.096 303.377 290.992C302.43 291.875 301.638 292.911 301.033 294.056C300.466 295.165 300.169 296.394 300.169 297.64H320.769ZM300.057 301.12C300.201 302.608 300.569 304.008 301.177 305.36C301.769 306.672 302.577 307.824 303.577 308.8C304.577 309.728 305.721 310.488 307.033 311.048C308.353 311.608 309.753 311.888 311.273 311.888C313.593 311.888 315.537 311.384 317.193 310.376C318.873 309.312 320.169 308.104 321.033 306.728L324.345 309.424C322.748 311.509 320.667 313.173 318.281 314.272C316.067 315.26 313.666 315.759 311.241 315.736C308.985 315.736 306.865 315.336 304.921 314.584C303.064 313.814 301.38 312.68 299.969 311.248C298.551 309.813 297.424 308.118 296.649 306.256C295.859 304.266 295.462 302.141 295.481 300C295.481 297.728 295.881 295.648 296.649 293.744C297.378 291.89 298.477 290.203 299.879 288.786C301.28 287.37 302.955 286.253 304.801 285.504C306.665 284.68 308.697 284.288 310.873 284.288C313.193 284.288 315.249 284.688 317.049 285.496C318.881 286.312 320.393 287.408 321.601 288.752C322.857 290.064 323.801 291.64 324.457 293.464C325.113 295.256 325.433 297.168 325.433 299.216V301.12H300.057ZM355.241 288.832H346.457V306.48C346.457 307.568 346.569 308.496 346.801 309.224C347.033 309.896 347.313 310.424 347.713 310.824C348.113 311.216 348.577 311.496 349.089 311.664C349.69 311.804 350.305 311.871 350.921 311.864C352.47 311.845 353.991 311.449 355.353 310.712L355.553 314.616C352.898 315.737 349.962 316.011 347.145 315.4C346.27 315.17 345.452 314.758 344.745 314.192C343.95 313.533 343.32 312.698 342.905 311.752C342.376 310.482 342.132 309.111 342.193 307.736V288.888H335.761V285.048H342.193V276.608H346.489V285.048H355.265L355.241 288.832Z" fill="white"/>
</g>
<defs>
<linearGradient id="paint0_linear_1847_2148" x1="256.801" y1="58.76" x2="256.801" y2="474.24" gradientUnits="userSpaceOnUse">
<stop stop-color="#FB9600"/>
<stop offset="0.25" stop-color="#00C26F"/>
<stop offset="0.505" stop-color="#6696D6"/>
<stop offset="0.776" stop-color="#F28984"/>
<stop offset="1" stop-color="#5FCEF0"/>
</linearGradient>
<linearGradient id="paint1_linear_1847_2148" x1="256.641" y1="0" x2="256.641" y2="512" gradientUnits="userSpaceOnUse">
<stop stop-color="#393A50"/>
<stop offset="1" stop-color="#171826"/>
</linearGradient>
<linearGradient id="paint2_linear_1847_2148" x1="257.442" y1="58.76" x2="257.442" y2="474.24" gradientUnits="userSpaceOnUse">
<stop stop-color="#FB9600"/>
<stop offset="0.25" stop-color="#00C26F"/>
<stop offset="0.505" stop-color="#6696D6"/>
<stop offset="0.776" stop-color="#F28984"/>
<stop offset="1" stop-color="#5FCEF0"/>
</linearGradient>
</defs>
</svg>
